X:10619
T:McGettrick's
R:reel
D:Matt Molloy & Sean Keane: Contentment is Wealth
Z:id:hn-reel-297
M:C|
K:G
~G3A BAAc|BGAF G2FG|~A3c BA~A2|1 BGAF DEFD:|2 BGAF D3g||
K:D
f2eg fded|cAAB cAAe|f2eg fded|cABc d2de|
~f3a gfed|cAAB cded|f2af gfed|BAFA DEFD||
